X:28
T:Manitoba Waltz
C:Andy De Jarlis
M:3/4
L:1/8
Z:abc by Bruce Osborne - bosborne@kos.net
K:G
ga|b3 g dc|B2 a3 g|f3 e cA|E4 fe|!
d3 ^c d^c|c3 B cd|B6 -|B4 ga|!
b3 g dc|B2 a3 g|f3 e cA|E4 fe|!
d3 ^c d^c|c3 F BA|G4 GA|G4:|!
K:D
FG|A2 d3 e|f3 (3f/g/f/ ef|g2 B3 f|e4 ed|!
c2 B3 A|G2 B3 A|F4 G2|F4 FG|!
A2 d3 e|f3 (3f/g/f/ ef|g2 B3 f|e4 ed|!
c2 B2 A2|c2 d2 e2|d4 de|d4:|!
